X:1
T:Title
%%score { ( 1 4 ) | ( 2 3 ) }
L:1/8
M:4/4
K:Eb
V:1 treble nm="Grand Piano"
V:4 treble 
V:2 bass 
V:3 bass 
V:1
 z4 z2[Q:1/4=106] E2 | G2 [GB]2 [GB]2 [Ac][GB] | [EG]2 [GB]2 [GB]3 E | %3
 G[GB] [GB]>[GB] [Ac][GB][B,FA][B,EG] | [DF]4 [B,DB]2 [G,E]2 | [B,EG]2 [GB]2 [GB]2 [Ac]B | %6
[M:7/8] [B,EG]2 [EGB]2 [EGB]3 |[M:1/8] [G,E] | %8
[M:4/4] [B,EG][B,FA] [EGB]>[EAc] [EGB][B,EG][G,E][B,EG] |[M:7/8] [DF]- [DF]3 [G,E]3 | %10
[M:1/4] [Ge][Ge] |[M:4/4] c4 e2 ee | [GB]3 c [EGB]3 [G,E] | [B,EG][B,FA] [GB]>[GB] [Ac][GB][FA]G | %14
 F4 [DB]2 [Ge][Ge] | c4 e2 ee | [GB]3 c [EGB]2 [G,E]2 | %17
 [B,EG][B,FA] [EGB]>[EAc] [EGB][B,EG][G,E][B,EG] |[M:7/8] [DF]- [DF]3 [G,E]3 |] %19
V:2
 z4 z2 [E,G,]2 | [E,B,E]2 [E,E]2 [E,E]2 [E,E]2 | [E,B,]2 [E,E]2 [E,E]3 [E,G,] | %3
 [E,B,E][E,E] [E,E]>[E,E] [E,E][E,E]E,E, | B,4 B,,2 E,2 | E,2 [E,E]2 [E,E]2 z G | %6
[M:7/8] E,2 E,2 E,3 |[M:1/8] E, |[M:4/4] E,E, E,>E, E,E,E,E, |[M:7/8] z2 A,2 E,3 | %10
[M:1/4] [E,B,][E,B,] |[M:4/4][K:treble] [A,EA]4 [A,CA]2 [A,CA][A,CA] | [E,E]4[K:bass] z4 | %13
 E,E, [E,E]>[E,E] [E,E][E,E][E,B,][E,B,E] | [B,D]4 [B,,B,]2 [E,B,][E,B,] | %15
 [A,EA]4 [A,CA]2 [A,CA][A,CA] | z2 z A[K:bass] E,2 E,2 | E,E, E,>E, E,E,E,E, |[M:7/8] z2 A,2 E,3 |] %19
V:3
 x8 | x8 | x8 | x8 | x8 | z4 z2 [E,E]2 |[M:7/8] x7 |[M:1/8] x |[M:4/4] x8 |[M:7/8] B,,- B,,3 z z2 | %10
[M:1/4] x2 |[M:4/4][K:treble] x8 | z2 z G[K:bass] E,3 E, | x8 | x8 | x8 | [E,E]4[K:bass] z4 | x8 | %18
[M:7/8] B,,- B,,3 z z2 |] %19
V:4
 x8 | x8 | x8 | x8 | x8 | x8 |[M:7/8] x7 |[M:1/8] x |[M:4/4] x8 |[M:7/8] B,2 z z z z2 |[M:1/4] x2 | %11
[M:4/4] x8 | x8 | x8 | x8 | x8 | x8 | x8 |[M:7/8] B,2 z z z z2 |] %19

